X: 4
T: Christmas Eve
T: Tommy Coen's
R:reel
C:Tommy Coen
Z:By T. Coen, of Co. Galway.
Z:John Walsh Dec 99
S:John Walsh <walsh:math.ubc.ca> irtrad-l 2001-12-7
M:C|
K:G
GE|D3 E ~G3 A|B2 dB ABGB|ABGE ~D3 E|G2 BG ABGE|
~D3 E GFGA|B2 dB ABGA|BA ~A2 GEBG| ABGE G3:|
A|BA (3Bcd edeg|agge g2 eg|a2 ge gage|dedB ABGA|
BA (3Bcd edeg|agge g2 eg|a2 ge d2 BG| ABGE G2:|
dc|BG ~G2 dGBd|eg ~g2 egdc|BG ~G2 dGBG|EA ~A2 EA ~A2|
BG ~G2 dGBd|eggf ~g3 a|bgag edBG|ABGE G2:|

%%sep 1 1 500

